img/vk_w.svg

<svg width="100%" height="100%" viewBox="0 0 88 87" fill="none" xmlns="http://www.w3.org/2000/svg">
<rect x="1.98157" y="1.14502" width="84.2899" height="84.2899" fill="white" stroke="black" stroke-width="2"/>
<path d="M52.0275 42.0633C56.1155 41.4733 59.3186 39.1553 59.3186 35.2358C59.3186 30.642 55.2726 27.6919 49.4988 27.6919H30.1121V57.1934H49.4566C56.242 57.1934 60.3722 54.3696 60.3722 49.3965C60.3722 44.9713 57.2113 42.5691 52.0275 42.0633ZM33.3151 30.2206H49.3302C52.9968 30.2206 56.1155 32.075 56.1155 35.573C56.1155 39.0289 52.9968 40.9676 49.3302 40.9676H33.3151V30.2206ZM49.1195 54.6647H33.3151V43.4541H49.5409C53.8819 43.4541 57.1692 44.9292 57.1692 48.9751C57.1692 53.021 53.8819 54.6647 49.1195 54.6647Z" fill="black"/>
</svg>

<svg viewBox="0 0 88 87" fill="none" xmlns="http://www.w3.org/2000/svg"><path fill="#fff" stroke="#000" stroke-width="2" d="M1.982 1.145h84.29v84.29H1.982z"/><path d="M52.028 42.063c4.087-.59 7.29-2.908 7.29-6.827 0-4.594-4.045-7.544-9.82-7.544H30.113v29.501h19.345c6.785 0 10.915-2.823 10.915-7.796 0-4.426-3.16-6.828-8.344-7.334zM33.315 30.221H49.33c3.667 0 6.785 1.854 6.785 5.352 0 3.456-3.118 5.395-6.785 5.395H33.315V30.22zM49.12 54.665H33.315v-11.21h16.226c4.34 0 7.628 1.474 7.628 5.52 0 4.046-3.287 5.69-8.05 5.69z" fill="#000"/></svg>
